images_breeze_svg/cmd/32/incrementindent.svg

<svg viewBox="0 0 32 32" xmlns="http://www.w3.org/2000/svg"><g transform="matrix(-1 0 0 1 32 0)"><path d="m28 12-5 4 5 4z" fill="#1d99f3"/><path d="m4 4v1h24v-1zm5 3v1h19v-1zm-5 7v1h17v-1zm13 3v1h4v-1zm-13 7v1h24v-1zm6 3v1h18v-1zm-6 1v1h4v-1z" fill="#4d4d4d"/></g></svg>

<?xml version="1.0" encoding="UTF-8" standalone="no"?>
<svg
   xmlns:dc="http://purl.org/dc/elements/1.1/"
   xmlns:cc="http://creativecommons.org/ns#"
   xmlns:rdf="http://www.w3.org/1999/02/22-rdf-syntax-ns#"
   xmlns:svg="http://www.w3.org/2000/svg"
   xmlns="http://www.w3.org/2000/svg"
   xmlns:sodipodi="http://sodipodi.sourceforge.net/DTD/sodipodi-0.dtd"
   xmlns:inkscape="http://www.inkscape.org/namespaces/inkscape"
   viewBox="0 0 32 32"
   version="1.1"
   id="svg6"
   sodipodi:docname="incrementindent.svg"
   inkscape:version="0.92.4 (unknown)"
   inkscape:export-filename="/home/rizmut/Dokumen/Rizmut/Github/libreoffice-style-breeze/images_breeze/cmd/32/incrementindent.png"
   inkscape:export-xdpi="96"
   inkscape:export-ydpi="96">
  <metadata
     id="metadata12">
    <rdf:RDF>
      <cc:Work
         rdf:about="">
        <dc:format>image/svg+xml</dc:format>
        <dc:type
           rdf:resource="http://purl.org/dc/dcmitype/StillImage" />
        <dc:title></dc:title>
      </cc:Work>
    </rdf:RDF>
  </metadata>
  <defs
     id="defs10" />
  <sodipodi:namedview
     pagecolor="#ffffff"
     bordercolor="#666666"
     borderopacity="1"
     objecttolerance="10"
     gridtolerance="10"
     guidetolerance="10"
     inkscape:pageopacity="0"
     inkscape:pageshadow="2"
     inkscape:window-width="1360"
     inkscape:window-height="714"
     id="namedview8"
     showgrid="true"
     inkscape:zoom="14.75"
     inkscape:cx="15.16708"
     inkscape:cy="20.552777"
     inkscape:window-x="0"
     inkscape:window-y="28"
     inkscape:window-maximized="1"
     inkscape:current-layer="svg6">
    <inkscape:grid
       type="xygrid"
       id="grid822" />
  </sodipodi:namedview>
  <g
     id="g826"
     transform="matrix(-1,0,0,1,32,0)">
    <path
       id="path2"
       d="m 28,12 -5,4 5,4 z"
       inkscape:connector-curvature="0"
       style="fill:#1d99f3" />
    <path
       id="path4"
       d="M 4,4 V 5 H 28 V 4 Z M 9,7 V 8 H 28 V 7 Z m -5,7 v 1 h 17 v -1 z m 13,3 v 1 h 4 V 17 Z M 4,24 v 1 h 24 v -1 z m 6,3 v 1 h 18 v -1 z m -6,1 v 1 h 4 v -1 z"
       inkscape:connector-curvature="0"
       style="fill:#4d4d4d" />
  </g>
</svg>
